X: 9580
T: David's
R: reel
M: 4/4
K: Eminor
D|:E2B2 B2AB|cdcB AGFD|E2B2 B2AB|cdcB ABAF|
E2B2 B2AB|cdcB AGFE|DEFG AAFG|AAGF E3D|
E2B2 B2AB|cdcB AGFD|E2B2 B2AB|cdcB ABAF|
E2B2 B2AB|cdcB AGFE|DEFG AAFG|AAGF EBgf|
eBgB aBgB|eBgB agfe|dAfA gAfA|dAfA gfed|
eBgB aBgB|eBgB agfe|defg afef|Bdef gfed|
eBgB aBgB|eBgB agfe|dAfA gAfA|dAfA gfed|
eBgB aBgB|eBgB agfe|defg afef|dBAF DEFD:|

